svgs/sharp-duotone-thin/road-barrier.svg

<svg xmlns="http://www.w3.org/2000/svg" viewBox="0 0 640 512"><!--! Font Awesome Pro 7.1.0 by @fontawesome - https://fontawesome.com License - https://fontawesome.com/license (Commercial License) Copyright 2025 Fonticons, Inc. --><path opacity=".4" fill="currentColor" d="M16 96l0 192 7.1 0 1.8-3.6 94.2-188.4-103.1 0zM200.9 288l142.1 0 1.8-3.6 94.2-188.4-142.1 0-1.8 3.6-94.2 188.4zm320 0l103.1 0 0-192-7.1 0-1.8 3.6-94.2 188.4z"/><path fill="currentColor" d="M16 40l0-8-16 0 0 448 16 0 0-176 608 0 0 176 16 0 0-448-16 0 0 48-608 0 0-40zm0 56l103.1 0-94.2 188.4-1.8 3.6-7.1 0 0-192zm608 0l0 192-103.1 0 94.2-188.4 1.8-3.6 7.1 0zM456.9 96l142.1 0-94.2 188.4-1.8 3.6-142.1 0 94.2-188.4 1.8-3.6zM279.1 96l-94.2 188.4-1.8 3.6-142.1 0 96-192 142.1 0zm17.9 0l142.1 0-94.2 188.4-1.8 3.6-142.1 0 94.2-188.4 1.8-3.6z"/></svg>

<svg xmlns="http://www.w3.org/2000/svg" viewBox="0 0 640 512"><!--! Font Awesome Pro 6.7.2 by @fontawesome - https://fontawesome.com License - https://fontawesome.com/license (Commercial License) Copyright 2024 Fonticons, Inc. --><defs><style>.fa-secondary{opacity:.4}</style></defs><path class="fa-secondary" d="M16 96l0 192 7.1 0 1.8-3.6L119.1 96 16 96zM200.9 288l142.1 0 1.8-3.6L439.1 96 296.9 96l-1.8 3.6L200.9 288zm320 0L624 288l0-192-7.1 0-1.8 3.6L520.9 288z"/><path class="fa-primary" d="M16 40l0-8L0 32l0 8L0 80 0 96 0 288l0 16L0 472l0 8 16 0 0-8 0-168 608 0 0 168 0 8 16 0 0-8 0-168 0-16 0-192 0-16 0-40 0-8-16 0 0 8 0 40L16 80l0-40zm0 56l103.1 0L24.8 284.4 23.1 288 16 288 16 96zm608 0l0 192-103.1 0L615.2 99.6l1.8-3.6 7.1 0zM456.9 96l142.1 0L504.8 284.4l-1.8 3.6-142.1 0L455.2 99.6l1.8-3.6zM279.1 96L184.8 284.4l-1.8 3.6L40.9 288 135.2 99.6l1.8-3.6 142.1 0zm17.9 0l142.1 0L344.8 284.4l-1.8 3.6-142.1 0L295.2 99.6l1.8-3.6z"/></svg>
